media/img/firefox/mobile/icon-extensions.svg

<?xml version="1.0" encoding="UTF-8"?>
<svg width="30px" height="30px" viewBox="0 0 30 30" version="1.1" xmlns="http://www.w3.org/2000/svg" xmlns:xlink="http://www.w3.org/1999/xlink">
    <!-- Generator: Sketch 47.1 (45422) - http://www.bohemiancoding.com/sketch -->
    <title>Extensions</title>
    <desc>Created with Sketch.</desc>
    <defs>
        <linearGradient x1="100%" y1="0%" x2="0%" y2="100%" id="linearGradient-1">
            <stop stop-color="#05C8E5" offset="0%"></stop>
            <stop stop-color="#008BFF" offset="100%"></stop>
        </linearGradient>
    </defs>
    <g id="Mobile-Wireframes" stroke="none" stroke-width="1" fill="none" fill-rule="evenodd">
        <g id="FF-mobile-feature_Extensions" transform="translate(-988.000000, -451.000000)" fill-rule="nonzero" fill="url(#linearGradient-1)">
            <g id="Group-4" transform="translate(985.000000, 448.000000)">
                <path d="M26.90625,19.875 C26.1358825,19.8600372 25.5149628,19.2391175 25.5,18.46875 L25.5,12.375 C25.5,11.3394661 24.6605339,10.5 23.625,10.5 L17.53125,10.5 C16.7608825,10.4850372 16.1399628,9.86411752 16.125,9.09375 C16.125,7.6875 18,7.633125 18,5.8125 C18,4.190625 16.3125,3 14.25,3 C12.1875,3 10.5,4.190625 10.5,5.8125 C10.5,7.633125 12.375,7.6875 12.375,9.09375 C12.3600372,9.86411752 11.7391175,10.4850372 10.96875,10.5 L4.875,10.5 C3.83946609,10.5 3,11.3394661 3,12.375 L3,16.59375 C3.0149628,17.3641175 3.63588248,17.9850372 4.40625,18 C5.8125,18 5.866875,16.125 7.6875,16.125 C9.309375,16.125 10.5,17.8125 10.5,19.875 C10.5,21.9375 9.309375,23.625 7.6875,23.625 C5.866875,23.625 5.8125,21.75 4.40625,21.75 C3.63588248,21.7649628 3.0149628,22.3858825 3,23.15625 L3,31.125 C3,32.1605339 3.83946609,33 4.875,33 L10.96875,33 C11.7391175,32.9850372 12.3600372,32.3641175 12.375,31.59375 C12.375,30.1875 10.5,30.133125 10.5,28.3125 C10.5,26.690625 14.25,25.5 14.25,25.5 C14.25,25.5 18,26.690625 18,28.3125 C18,30.133125 16.125,30.1875 16.125,31.59375 C16.1399628,32.3641175 16.7608825,32.9850372 17.53125,33 L23.625,33 C24.6605339,33 25.5,32.1605339 25.5,31.125 L25.5,25.03125 C25.5149628,24.2608825 26.1358825,23.6399628 26.90625,23.625 C28.3125,23.625 28.366875,25.5 30.1875,25.5 C31.809375,25.5 33,23.8125 33,21.75 C33,19.6875 31.809375,18 30.1875,18 C28.366875,18 28.3125,19.875 26.90625,19.875 Z" id="Extensions"></path>
            </g>
        </g>
    </g>
</svg>

<svg width="30" height="30" viewBox="0 0 30 30" xmlns="http://www.w3.org/2000/svg">
  <title>
    Extensions
  </title>
  <defs>
    <linearGradient x1="100%" y1="0%" x2="0%" y2="100%" id="a">
      <stop stop-color="#05C8E5" offset="0%"/>
      <stop stop-color="#008BFF" offset="100%"/>
    </linearGradient>
  </defs>
  <path d="M26.906 19.875c-.77-.015-1.39-.636-1.406-1.406v-6.1c0-1.038-.84-1.877-1.875-1.877H17.53c-.77-.016-1.39-.637-1.405-1.407C16.125 7.686 18 7.63 18 5.81 18 4.19 16.312 3 14.25 3c-2.063 0-3.75 1.19-3.75 2.81 0 1.82 1.875 1.875 1.875 3.28-.015.77-.636 1.392-1.406 1.407h-6.1C3.84 10.5 3 11.34 3 12.374v4.22c.015.77.636 1.39 1.406 1.405 1.407 0 1.46-1.88 3.282-1.88 1.62 0 2.812 1.69 2.812 3.75 0 2.063-1.19 3.75-2.813 3.75-1.82 0-1.875-1.875-3.28-1.875-.77.014-1.392.635-1.407 1.405v7.97C3 32.16 3.84 33 4.875 33h6.094c.77-.015 1.39-.636 1.4-1.406 0-1.407-1.876-1.46-1.876-3.282 0-1.62 3.75-2.812 3.75-2.812S18 26.69 18 28.313c0 1.82-1.875 1.875-1.875 3.28.015.77.636 1.392 1.406 1.407h6.1c1.037 0 1.876-.84 1.876-1.875V25.03c.016-.77.637-1.39 1.407-1.405 1.407 0 1.46 1.875 3.28 1.875 1.62 0 2.81-1.688 2.81-3.75 0-2.063-1.19-3.75-2.81-3.75-1.82 0-1.874 1.875-3.28 1.875z" transform="translate(-3 -3)" fill="url(#a)"/>
</svg>
